packages/katcn/src/icons/svg/emoji.svg

<svg xmlns="http://www.w3.org/2000/svg" fill="none" viewBox="0 0 24 24"><path fill="#000" d="M12 2C6.5 2 2 6.5 2 12s4.5 10 10 10 10-4.5 10-10S17.5 2 12 2m0 18c-4.4 0-8-3.6-8-8s3.6-8 8-8 8 3.6 8 8-3.6 8-8 8"/><path fill="#000" d="M16.1 11c-.6 0-1 .4-1 1 0 1.7-1.4 3.1-3.1 3.1S8.9 13.7 8.9 12c0-.6-.4-1-1-1s-1 .4-1 1c0 2.8 2.3 5.1 5.1 5.1s5.1-2.3 5.1-5.1c0-.6-.5-1-1-1"/></svg>

<svg width="24" height="24" viewBox="0 0 24 24" fill="none" xmlns="http://www.w3.org/2000/svg">
<path d="M12 2C6.5 2 2 6.5 2 12C2 17.5 6.5 22 12 22C17.5 22 22 17.5 22 12C22 6.5 17.5 2 12 2ZM12 20C7.6 20 4 16.4 4 12C4 7.6 7.6 4 12 4C16.4 4 20 7.6 20 12C20 16.4 16.4 20 12 20Z" fill="black"/>
<path d="M16.1 11C15.5 11 15.1 11.4 15.1 12C15.1 13.7 13.7 15.1 12 15.1C10.3 15.1 8.90002 13.7 8.90002 12C8.90002 11.4 8.50002 11 7.90002 11C7.30002 11 6.90002 11.4 6.90002 12C6.90002 14.8 9.20002 17.1 12 17.1C14.8 17.1 17.1 14.8 17.1 12C17.1 11.4 16.6 11 16.1 11Z" fill="black"/>
</svg>
